X: 20
T:White Ladies Aston (1)
T:Paddy McGinty's Goat
M:4/4
L:1/8
Q:160
N:Tune changes at "Cross Overs"
Z:Brian Martin <brian_martin12345@yahoo.com> Winterbourn Downs Morris  (rcvd Jan 2003)
K:G
G>A | B2B>AG2G>A | B>AB>cd3B | c2c>BA2A>B | c>Bc>de2d>c | B2B>AG2G>A | B>AB>cd3B | c>B c>BA2d>c | ((3B<GG) G>GG2 :|
zf | g2g>ed2d2 | g>fg>ed4 | f>ef>ed2d2 | f>ef>ed4 | e2c2d2B2 | c>Bc>dB3B | c>Bc>BA2d>c | ((3B<GG) G>GG2 :|
